report_00007_2020-12-11T15:55:29.892Z/network-rtt/comparison/sorted/3_vs_4.svg

<svg width="640" height="500" xmlns="http://www.w3.org/2000/svg" xmlns:xlink="http://www.w3.org/1999/xlink"><path fill="#fff" d="M0 0h640v500H0z"/><defs><path id="d" stroke-width=".222" stroke="currentColor" d="M-1-1h2v2h-2z"/><path id="b" stroke-width=".222" stroke="currentColor" d="M0-1.33l-1.33 2h2.66z"/><path id="f" stroke-width=".222" stroke="currentColor" d="M0 1.33L1.265.411.782-1.067l-1.564-.009-.483 1.487z"/><use xlink:href="#b" id="c" stroke="currentColor" transform="rotate(180)"/><use xlink:href="#d" id="e" stroke="currentColor" transform="rotate(45)"/><circle id="a" stroke-width=".222" stroke="currentColor" cx="0" cy="0" r="1"/></defs><g fill="none" color="#000" stroke="currentColor"><path stroke="#000" d="M62.2 428.1h9m543.8 0h-9"/><text transform="translate(53.9 432)" stroke="none" fill="#000" font-family="Arial" font-size="12" text-anchor="end"><tspan>0.05</tspan></text></g><g fill="none" color="#000" stroke="currentColor"><path stroke="#000" d="M62.2 382h9m543.8 0h-9"/><text transform="translate(53.9 385.9)" stroke="none" fill="#000" font-family="Arial" font-size="12" text-anchor="end"><tspan>0.1</tspan></text></g><g fill="none" color="#000" stroke="currentColor"><path stroke="#000" d="M62.2 335.9h9m543.8 0h-9"/><text transform="translate(53.9 339.8)" stroke="none" fill="#000" font-family="Arial" font-size="12" text-anchor="end"><tspan>0.15</tspan></text></g><g fill="none" color="#000" stroke="currentColor"><path stroke="#000" d="M62.2 289.9h9m543.8 0h-9"/><text transform="translate(53.9 293.8)" stroke="none" fill="#000" font-family="Arial" font-size="12" text-anchor="end"><tspan>0.2</tspan></text></g><g fill="none" color="#000" stroke="currentColor"><path stroke="#000" d="M62.2 243.8h9m543.8 0h-9"/><text transform="translate(53.9 247.7)" stroke="none" fill="#000" font-family="Arial" font-size="12" text-anchor="end"><tspan>0.25</tspan></text></g><g fill="none" color="#000" stroke="currentColor"><path stroke="#000" d="M62.2 197.7h9m543.8 0h-9"/><text transform="translate(53.9 201.6)" stroke="none" fill="#000" font-family="Arial" font-size="12" text-anchor="end"><tspan>0.3</tspan></text></g><g fill="none" color="#000" stroke="currentColor"><path stroke="#000" d="M62.2 151.7h9m543.8 0h-9"/><text transform="translate(53.9 155.6)" stroke="none" fill="#000" font-family="Arial" font-size="12" text-anchor="end"><tspan>0.35</tspan></text></g><g fill="none" color="#000" stroke="currentColor"><path stroke="#000" d="M62.2 105.6h9m543.8 0h-9"/><text transform="translate(53.9 109.5)" stroke="none" fill="#000" font-family="Arial" font-size="12" text-anchor="end"><tspan>0.4</tspan></text></g><g fill="none" color="#000" stroke="currentColor"><path stroke="#000" d="M62.2 59.5h9m543.8 0h-9"/><text transform="translate(53.9 63.4)" stroke="none" fill="#000" font-family="Arial" font-size="12" text-anchor="end"><tspan>0.45</tspan></text></g><g fill="none" color="#000" stroke="currentColor"><path stroke="#000" d="M62.2 446v-9m0-418.9v9"/><text transform="translate(62.2 467.9)" stroke="none" fill="#000" font-family="Arial" font-size="12" text-anchor="middle"><tspan>0</tspan></text></g><g fill="none" color="#000" stroke="currentColor"><path stroke="#000" d="M118 446v-9m0-418.9v9"/><text transform="translate(118 467.9)" stroke="none" fill="#000" font-family="Arial" font-size="12" text-anchor="middle"><tspan>10</tspan></text></g><g fill="none" color="#000" stroke="currentColor"><path stroke="#000" d="M173.9 446v-9m0-418.9v9"/><text transform="translate(173.9 467.9)" stroke="none" fill="#000" font-family="Arial" font-size="12" text-anchor="middle"><tspan>20</tspan></text></g><g fill="none" color="#000" stroke="currentColor"><path stroke="#000" d="M229.7 446v-9m0-418.9v9"/><text transform="translate(229.7 467.9)" stroke="none" fill="#000" font-family="Arial" font-size="12" text-anchor="middle"><tspan>30</tspan></text></g><g fill="none" color="#000" stroke="currentColor"><path stroke="#000" d="M285.6 446v-9m0-418.9v9"/><text transform="translate(285.6 467.9)" stroke="none" fill="#000" font-family="Arial" font-size="12" text-anchor="middle"><tspan>40</tspan></text></g><g fill="none" color="#000" stroke="currentColor"><path stroke="#000" d="M341.4 446v-9m0-418.9v9"/><text transform="translate(341.4 467.9)" stroke="none" fill="#000" font-family="Arial" font-size="12" text-anchor="middle"><tspan>50</tspan></text></g><g fill="none" color="#000" stroke="currentColor"><path stroke="#000" d="M397.2 446v-9m0-418.9v9"/><text transform="translate(397.2 467.9)" stroke="none" fill="#000" font-family="Arial" font-size="12" text-anchor="middle"><tspan>60</tspan></text></g><g fill="none" color="#000" stroke="currentColor"><path stroke="#000" d="M453.1 446v-9m0-418.9v9"/><text transform="translate(453.1 467.9)" stroke="none" fill="#000" font-family="Arial" font-size="12" text-anchor="middle"><tspan>70</tspan></text></g><g fill="none" color="#000" stroke="currentColor"><path stroke="#000" d="M508.9 446v-9m0-418.9v9"/><text transform="translate(508.9 467.9)" stroke="none" fill="#000" font-family="Arial" font-size="12" text-anchor="middle"><tspan>80</tspan></text></g><g fill="none" color="#000" stroke="currentColor"><path stroke="#000" d="M564.7 446v-9m0-418.9v9"/><text transform="translate(564.7 467.9)" stroke="none" fill="#000" font-family="Arial" font-size="12" text-anchor="middle"><tspan>90</tspan></text></g><path stroke="#000" d="M62.2 18.1V446H615V18.1H62.2z" fill="none" color="#000"/><text transform="translate(279.8 485.9)" stroke="none" fill="#000" font-family="Arial" font-size="12" text-anchor="end" color="#000"><tspan>pages+cached+nointeractive</tspan></text><path stroke="#9400D3" d="M288.1 482h42.2M62.2 381l5.6-38.3 5.6-7.1 5.6-.8 5.5-6.2 5.6-.3 5.6-18.4 5.6-24.2 5.6-.8 5.6-4.1 5.5-15.3 5.6-3.2 5.6-7.1 5.6-5.9 5.6-8 5.6-3.4 5.5-7.4 5.6-1 5.6-3 5.6-4.5 5.6-.9 5.6-.4 5.5-1.9 5.6-.3 5.6-2.3 5.6-2.9 5.6-5.6 5.6-1 5.5-.3 5.6-1.1 5.6-4.8 5.6-1.3 5.6-2 5.6-.5 5.6-9.6 5.5-.2 5.6-10.3 5.6-3.3 5.6-4.5 5.6-.7 5.6-1 5.5-5.6 5.6-.1 5.6-1.5 5.6-1 5.6-1.5 5.6-.5 5.5-.2 5.6-3.4 5.6-3.1 5.6-.6 5.6-1 5.6-.7 5.5-2.6 5.6-1.3 5.6-.4h5.6l5.6-.6 5.6-.6 5.5-1.3 5.6-.4 5.6-.7 5.6-.2 5.6-1.7 5.6-.9 5.5-1.3 5.6-.5 5.6-.1 5.6-2.4 5.6-.8 5.6-1.6 5.6-1.3 5.5-1h5.6l5.6-.3 5.6-3.4 5.6-.7 5.6-.8 5.5-3.7 5.6-1.5 5.6-.7 5.6-1.7 5.6-1.6 5.6-1.9 5.5-1.1 5.6-2.1 5.6-2 5.6-.7 5.6-.3 5.6-.3 5.5-3 5.6-1.7 5.6-.1 5.6-.5 5.6-.6 5.6-.7 5.5-17.6 5.6-.9 5.6-6.6 5.6-47.4" fill="none" color="#000"/><text transform="translate(554.4 485.9)" stroke="none" fill="#000" font-family="Arial" font-size="12" text-anchor="end" color="#000"><tspan>pages+cached+noadtech</tspan></text><path stroke="#009E73" d="M562.7 482h42.2M62.2 437.8l5.6-4.7 5.6-2.2 5.6-.8 5.5-.7 5.6-3 5.6-.1 5.6-.3 5.6-.7 5.6-1.4 5.5-.9 5.6-.3 5.6-.2 5.6-.2 5.6-.7 5.6-.1 5.5-.6 5.6-.4 5.6-.1 5.6-.3 5.6-.2 5.6-.4 5.5-.3h5.6l5.6-.3 5.6-.9 5.6-.2 5.6-.1 5.5-.2h11.2l5.6-.8 5.6-.2 5.6-.4h5.6l5.5-1.2 5.6-.2 5.6-.3 5.6-.1 5.6-.5 5.6-.2h5.5l5.6-.2h5.6l5.6-.1 5.6-.1 5.6-.4h5.5l5.6-1.1 5.6-.3h5.6l5.6-.1 5.6-.1 5.5-.2h5.6l5.6-.1 5.6-.5 5.6-.1 5.6-.3 5.5-.2 5.6-.3 5.6-.8 5.6-1.2 5.6-.5 5.6-.9 5.5-.1 5.6-.5 5.6-.8 5.6-.2 5.6-.5 5.6-.2 5.6-.4 5.5-.6 5.6-.5 5.6-.3 5.6-1.5 5.6-.7 5.6-.6 5.5-.2 5.6-.7 5.6-1.7 5.6-2.8 5.6-4.3 5.6-1 5.5-.2 5.6-3.8 5.6-1.6 5.6-1.6 5.6-.1 5.6-2.5 5.5-2.2 5.6-2.3 5.6-12.9 5.6-4 5.6-7.8 5.6-12.6 5.5-5.1 5.6-.6 5.6-.7 5.6-9.8" fill="none" color="#000"/><g fill="none" color="#000" stroke="currentColor"><path stroke="#000" d="M62.2 18.1V446H615V18.1H62.2z"/></g></svg>

<?xml version="1.0" encoding="utf-8"  standalone="no"?>
<svg 
 width="640" height="500"
 viewBox="0 0 640 500"
 xmlns="http://www.w3.org/2000/svg"
 xmlns:xlink="http://www.w3.org/1999/xlink"
>

<title>Gnuplot</title>
<desc>Produced by GNUPLOT 5.4 patchlevel 0 </desc>

<g id="gnuplot_canvas">

<rect x="0" y="0" width="640" height="500" fill="#ffffff"/>
<defs>

	<circle id='gpDot' r='0.5' stroke-width='0.5' stroke='currentColor'/>
	<path id='gpPt0' stroke-width='0.222' stroke='currentColor' d='M-1,0 h2 M0,-1 v2'/>
	<path id='gpPt1' stroke-width='0.222' stroke='currentColor' d='M-1,-1 L1,1 M1,-1 L-1,1'/>
	<path id='gpPt2' stroke-width='0.222' stroke='currentColor' d='M-1,0 L1,0 M0,-1 L0,1 M-1,-1 L1,1 M-1,1 L1,-1'/>
	<rect id='gpPt3' stroke-width='0.222' stroke='currentColor' x='-1' y='-1' width='2' height='2'/>
	<rect id='gpPt4' stroke-width='0.222' stroke='currentColor' fill='currentColor' x='-1' y='-1' width='2' height='2'/>
	<circle id='gpPt5' stroke-width='0.222' stroke='currentColor' cx='0' cy='0' r='1'/>
	<use xlink:href='#gpPt5' id='gpPt6' fill='currentColor' stroke='none'/>
	<path id='gpPt7' stroke-width='0.222' stroke='currentColor' d='M0,-1.33 L-1.33,0.67 L1.33,0.67 z'/>
	<use xlink:href='#gpPt7' id='gpPt8' fill='currentColor' stroke='none'/>
	<use xlink:href='#gpPt7' id='gpPt9' stroke='currentColor' transform='rotate(180)'/>
	<use xlink:href='#gpPt9' id='gpPt10' fill='currentColor' stroke='none'/>
	<use xlink:href='#gpPt3' id='gpPt11' stroke='currentColor' transform='rotate(45)'/>
	<use xlink:href='#gpPt11' id='gpPt12' fill='currentColor' stroke='none'/>
	<path id='gpPt13' stroke-width='0.222' stroke='currentColor' d='M0,1.330 L1.265,0.411 L0.782,-1.067 L-0.782,-1.076 L-1.265,0.411 z'/>
	<use xlink:href='#gpPt13' id='gpPt14' fill='currentColor' stroke='none'/>
	<filter id='textbox' filterUnits='objectBoundingBox' x='0' y='0' height='1' width='1'>
	  <feFlood flood-color='#FFFFFF' flood-opacity='1' result='bgnd'/>
	  <feComposite in='SourceGraphic' in2='bgnd' operator='atop'/>
	</filter>
	<filter id='greybox' filterUnits='objectBoundingBox' x='0' y='0' height='1' width='1'>
	  <feFlood flood-color='lightgrey' flood-opacity='1' result='grey'/>
	  <feComposite in='SourceGraphic' in2='grey' operator='atop'/>
	</filter>
</defs>
<g fill="none" color="#FFFFFF" stroke="black" stroke-width="1.00" stroke-linecap="butt" stroke-linejoin="miter">
</g>
<g fill="none" color="black" stroke="currentColor" stroke-width="1.00" stroke-linecap="butt" stroke-linejoin="miter">
	<path stroke='black'  d='M62.2,428.1 L71.2,428.1 M615.0,428.1 L606.0,428.1  '/>	<g transform="translate(53.9,432.0)" stroke="none" fill="black" font-family="Arial" font-size="12.00"  text-anchor="end">
		<text><tspan font-family="Arial" > 0.05</tspan></text>
	</g>
</g>
<g fill="none" color="black" stroke="currentColor" stroke-width="1.00" stroke-linecap="butt" stroke-linejoin="miter">
	<path stroke='black'  d='M62.2,382.0 L71.2,382.0 M615.0,382.0 L606.0,382.0  '/>	<g transform="translate(53.9,385.9)" stroke="none" fill="black" font-family="Arial" font-size="12.00"  text-anchor="end">
		<text><tspan font-family="Arial" > 0.1</tspan></text>
	</g>
</g>
<g fill="none" color="black" stroke="currentColor" stroke-width="1.00" stroke-linecap="butt" stroke-linejoin="miter">
	<path stroke='black'  d='M62.2,335.9 L71.2,335.9 M615.0,335.9 L606.0,335.9  '/>	<g transform="translate(53.9,339.8)" stroke="none" fill="black" font-family="Arial" font-size="12.00"  text-anchor="end">
		<text><tspan font-family="Arial" > 0.15</tspan></text>
	</g>
</g>
<g fill="none" color="black" stroke="currentColor" stroke-width="1.00" stroke-linecap="butt" stroke-linejoin="miter">
	<path stroke='black'  d='M62.2,289.9 L71.2,289.9 M615.0,289.9 L606.0,289.9  '/>	<g transform="translate(53.9,293.8)" stroke="none" fill="black" font-family="Arial" font-size="12.00"  text-anchor="end">
		<text><tspan font-family="Arial" > 0.2</tspan></text>
	</g>
</g>
<g fill="none" color="black" stroke="currentColor" stroke-width="1.00" stroke-linecap="butt" stroke-linejoin="miter">
	<path stroke='black'  d='M62.2,243.8 L71.2,243.8 M615.0,243.8 L606.0,243.8  '/>	<g transform="translate(53.9,247.7)" stroke="none" fill="black" font-family="Arial" font-size="12.00"  text-anchor="end">
		<text><tspan font-family="Arial" > 0.25</tspan></text>
	</g>
</g>
<g fill="none" color="black" stroke="currentColor" stroke-width="1.00" stroke-linecap="butt" stroke-linejoin="miter">
	<path stroke='black'  d='M62.2,197.7 L71.2,197.7 M615.0,197.7 L606.0,197.7  '/>	<g transform="translate(53.9,201.6)" stroke="none" fill="black" font-family="Arial" font-size="12.00"  text-anchor="end">
		<text><tspan font-family="Arial" > 0.3</tspan></text>
	</g>
</g>
<g fill="none" color="black" stroke="currentColor" stroke-width="1.00" stroke-linecap="butt" stroke-linejoin="miter">
	<path stroke='black'  d='M62.2,151.7 L71.2,151.7 M615.0,151.7 L606.0,151.7  '/>	<g transform="translate(53.9,155.6)" stroke="none" fill="black" font-family="Arial" font-size="12.00"  text-anchor="end">
		<text><tspan font-family="Arial" > 0.35</tspan></text>
	</g>
</g>
<g fill="none" color="black" stroke="currentColor" stroke-width="1.00" stroke-linecap="butt" stroke-linejoin="miter">
	<path stroke='black'  d='M62.2,105.6 L71.2,105.6 M615.0,105.6 L606.0,105.6  '/>	<g transform="translate(53.9,109.5)" stroke="none" fill="black" font-family="Arial" font-size="12.00"  text-anchor="end">
		<text><tspan font-family="Arial" > 0.4</tspan></text>
	</g>
</g>
<g fill="none" color="black" stroke="currentColor" stroke-width="1.00" stroke-linecap="butt" stroke-linejoin="miter">
	<path stroke='black'  d='M62.2,59.5 L71.2,59.5 M615.0,59.5 L606.0,59.5  '/>	<g transform="translate(53.9,63.4)" stroke="none" fill="black" font-family="Arial" font-size="12.00"  text-anchor="end">
		<text><tspan font-family="Arial" > 0.45</tspan></text>
	</g>
</g>
<g fill="none" color="black" stroke="currentColor" stroke-width="1.00" stroke-linecap="butt" stroke-linejoin="miter">
	<path stroke='black'  d='M62.2,446.0 L62.2,437.0 M62.2,18.1 L62.2,27.1  '/>	<g transform="translate(62.2,467.9)" stroke="none" fill="black" font-family="Arial" font-size="12.00"  text-anchor="middle">
		<text><tspan font-family="Arial" > 0</tspan></text>
	</g>
</g>
<g fill="none" color="black" stroke="currentColor" stroke-width="1.00" stroke-linecap="butt" stroke-linejoin="miter">
	<path stroke='black'  d='M118.0,446.0 L118.0,437.0 M118.0,18.1 L118.0,27.1  '/>	<g transform="translate(118.0,467.9)" stroke="none" fill="black" font-family="Arial" font-size="12.00"  text-anchor="middle">
		<text><tspan font-family="Arial" > 10</tspan></text>
	</g>
</g>
<g fill="none" color="black" stroke="currentColor" stroke-width="1.00" stroke-linecap="butt" stroke-linejoin="miter">
	<path stroke='black'  d='M173.9,446.0 L173.9,437.0 M173.9,18.1 L173.9,27.1  '/>	<g transform="translate(173.9,467.9)" stroke="none" fill="black" font-family="Arial" font-size="12.00"  text-anchor="middle">
		<text><tspan font-family="Arial" > 20</tspan></text>
	</g>
</g>
<g fill="none" color="black" stroke="currentColor" stroke-width="1.00" stroke-linecap="butt" stroke-linejoin="miter">
	<path stroke='black'  d='M229.7,446.0 L229.7,437.0 M229.7,18.1 L229.7,27.1  '/>	<g transform="translate(229.7,467.9)" stroke="none" fill="black" font-family="Arial" font-size="12.00"  text-anchor="middle">
		<text><tspan font-family="Arial" > 30</tspan></text>
	</g>
</g>
<g fill="none" color="black" stroke="currentColor" stroke-width="1.00" stroke-linecap="butt" stroke-linejoin="miter">
	<path stroke='black'  d='M285.6,446.0 L285.6,437.0 M285.6,18.1 L285.6,27.1  '/>	<g transform="translate(285.6,467.9)" stroke="none" fill="black" font-family="Arial" font-size="12.00"  text-anchor="middle">
		<text><tspan font-family="Arial" > 40</tspan></text>
	</g>
</g>
<g fill="none" color="black" stroke="currentColor" stroke-width="1.00" stroke-linecap="butt" stroke-linejoin="miter">
	<path stroke='black'  d='M341.4,446.0 L341.4,437.0 M341.4,18.1 L341.4,27.1  '/>	<g transform="translate(341.4,467.9)" stroke="none" fill="black" font-family="Arial" font-size="12.00"  text-anchor="middle">
		<text><tspan font-family="Arial" > 50</tspan></text>
	</g>
</g>
<g fill="none" color="black" stroke="currentColor" stroke-width="1.00" stroke-linecap="butt" stroke-linejoin="miter">
	<path stroke='black'  d='M397.2,446.0 L397.2,437.0 M397.2,18.1 L397.2,27.1  '/>	<g transform="translate(397.2,467.9)" stroke="none" fill="black" font-family="Arial" font-size="12.00"  text-anchor="middle">
		<text><tspan font-family="Arial" > 60</tspan></text>
	</g>
</g>
<g fill="none" color="black" stroke="currentColor" stroke-width="1.00" stroke-linecap="butt" stroke-linejoin="miter">
	<path stroke='black'  d='M453.1,446.0 L453.1,437.0 M453.1,18.1 L453.1,27.1  '/>	<g transform="translate(453.1,467.9)" stroke="none" fill="black" font-family="Arial" font-size="12.00"  text-anchor="middle">
		<text><tspan font-family="Arial" > 70</tspan></text>
	</g>
</g>
<g fill="none" color="black" stroke="currentColor" stroke-width="1.00" stroke-linecap="butt" stroke-linejoin="miter">
	<path stroke='black'  d='M508.9,446.0 L508.9,437.0 M508.9,18.1 L508.9,27.1  '/>	<g transform="translate(508.9,467.9)" stroke="none" fill="black" font-family="Arial" font-size="12.00"  text-anchor="middle">
		<text><tspan font-family="Arial" > 80</tspan></text>
	</g>
</g>
<g fill="none" color="black" stroke="currentColor" stroke-width="1.00" stroke-linecap="butt" stroke-linejoin="miter">
	<path stroke='black'  d='M564.7,446.0 L564.7,437.0 M564.7,18.1 L564.7,27.1  '/>	<g transform="translate(564.7,467.9)" stroke="none" fill="black" font-family="Arial" font-size="12.00"  text-anchor="middle">
		<text><tspan font-family="Arial" > 90</tspan></text>
	</g>
</g>
<g fill="none" color="black" stroke="currentColor" stroke-width="1.00" stroke-linecap="butt" stroke-linejoin="miter">
</g>
<g fill="none" color="black" stroke="currentColor" stroke-width="1.00" stroke-linecap="butt" stroke-linejoin="miter">
	<path stroke='black'  d='M62.2,18.1 L62.2,446.0 L615.0,446.0 L615.0,18.1 L62.2,18.1 Z  '/></g>
<g fill="none" color="black" stroke="currentColor" stroke-width="1.00" stroke-linecap="butt" stroke-linejoin="miter">
</g>
	<g id="gnuplot_plot_1" ><title>pages+cached+nointeractive</title>
<g fill="none" color="black" stroke="currentColor" stroke-width="1.00" stroke-linecap="butt" stroke-linejoin="miter">
	<g transform="translate(279.8,485.9)" stroke="none" fill="black" font-family="Arial" font-size="12.00"  text-anchor="end">
		<text><tspan font-family="Arial" >pages+cached+nointeractive</tspan></text>
	</g>
</g>
<g fill="none" color="black" stroke="currentColor" stroke-width="1.00" stroke-linecap="butt" stroke-linejoin="miter">
	<path stroke='rgb(148,   0, 211)'  d='M288.1,482.0 L330.3,482.0 M62.2,381.0 L67.8,342.7 L73.4,335.6 L79.0,334.8 L84.5,328.6 L90.1,328.3
		L95.7,309.9 L101.3,285.7 L106.9,284.9 L112.5,280.8 L118.0,265.5 L123.6,262.3 L129.2,255.2 L134.8,249.3
		L140.4,241.3 L146.0,237.9 L151.5,230.5 L157.1,229.5 L162.7,226.5 L168.3,222.0 L173.9,221.1 L179.5,220.7
		L185.0,218.8 L190.6,218.5 L196.2,216.2 L201.8,213.3 L207.4,207.7 L213.0,206.7 L218.5,206.4 L224.1,205.3
		L229.7,200.5 L235.3,199.2 L240.9,197.2 L246.5,196.7 L252.1,187.1 L257.6,186.9 L263.2,176.6 L268.8,173.3
		L274.4,168.8 L280.0,168.1 L285.6,167.1 L291.1,161.5 L296.7,161.4 L302.3,159.9 L307.9,158.9 L313.5,157.4
		L319.1,156.9 L324.6,156.7 L330.2,153.3 L335.8,150.2 L341.4,149.6 L347.0,148.6 L352.6,147.9 L358.1,145.3
		L363.7,144.0 L369.3,143.6 L374.9,143.6 L380.5,143.0 L386.1,142.4 L391.6,141.1 L397.2,140.7 L402.8,140.0
		L408.4,139.8 L414.0,138.1 L419.6,137.2 L425.1,135.9 L430.7,135.4 L436.3,135.3 L441.9,132.9 L447.5,132.1
		L453.1,130.5 L458.7,129.2 L464.2,128.2 L469.8,128.2 L475.4,127.9 L481.0,124.5 L486.6,123.8 L492.2,123.0
		L497.7,119.3 L503.3,117.8 L508.9,117.1 L514.5,115.4 L520.1,113.8 L525.7,111.9 L531.2,110.8 L536.8,108.7
		L542.4,106.7 L548.0,106.0 L553.6,105.7 L559.2,105.4 L564.7,102.4 L570.3,100.7 L575.9,100.6 L581.5,100.1
		L587.1,99.5 L592.7,98.8 L598.2,81.2 L603.8,80.3 L609.4,73.7 L615.0,26.3  '/></g>
	</g>
	<g id="gnuplot_plot_2" ><title>pages+cached+noadtech</title>
<g fill="none" color="black" stroke="currentColor" stroke-width="1.00" stroke-linecap="butt" stroke-linejoin="miter">
	<g transform="translate(554.4,485.9)" stroke="none" fill="black" font-family="Arial" font-size="12.00"  text-anchor="end">
		<text><tspan font-family="Arial" >pages+cached+noadtech</tspan></text>
	</g>
</g>
<g fill="none" color="black" stroke="currentColor" stroke-width="1.00" stroke-linecap="butt" stroke-linejoin="miter">
	<path stroke='rgb(  0, 158, 115)'  d='M562.7,482.0 L604.9,482.0 M62.2,437.8 L67.8,433.1 L73.4,430.9 L79.0,430.1 L84.5,429.4 L90.1,426.4
		L95.7,426.3 L101.3,426.0 L106.9,425.3 L112.5,423.9 L118.0,423.0 L123.6,422.7 L129.2,422.5 L134.8,422.3
		L140.4,421.6 L146.0,421.5 L151.5,420.9 L157.1,420.5 L162.7,420.4 L168.3,420.1 L173.9,419.9 L179.5,419.5
		L185.0,419.2 L190.6,419.2 L196.2,418.9 L201.8,418.0 L207.4,417.8 L213.0,417.7 L218.5,417.5 L224.1,417.5
		L229.7,417.5 L235.3,416.7 L240.9,416.5 L246.5,416.1 L252.1,416.1 L257.6,414.9 L263.2,414.7 L268.8,414.4
		L274.4,414.3 L280.0,413.8 L285.6,413.6 L291.1,413.6 L296.7,413.4 L302.3,413.4 L307.9,413.3 L313.5,413.2
		L319.1,412.8 L324.6,412.8 L330.2,411.7 L335.8,411.4 L341.4,411.4 L347.0,411.3 L352.6,411.2 L358.1,411.0
		L363.7,411.0 L369.3,410.9 L374.9,410.4 L380.5,410.3 L386.1,410.0 L391.6,409.8 L397.2,409.5 L402.8,408.7
		L408.4,407.5 L414.0,407.0 L419.6,406.1 L425.1,406.0 L430.7,405.5 L436.3,404.7 L441.9,404.5 L447.5,404.0
		L453.1,403.8 L458.7,403.4 L464.2,402.8 L469.8,402.3 L475.4,402.0 L481.0,400.5 L486.6,399.8 L492.2,399.2
		L497.7,399.0 L503.3,398.3 L508.9,396.6 L514.5,393.8 L520.1,389.5 L525.7,388.5 L531.2,388.3 L536.8,384.5
		L542.4,382.9 L548.0,381.3 L553.6,381.2 L559.2,378.7 L564.7,376.5 L570.3,374.2 L575.9,361.3 L581.5,357.3
		L587.1,349.5 L592.7,336.9 L598.2,331.8 L603.8,331.2 L609.4,330.5 L615.0,320.7  '/></g>
	</g>
<g fill="none" color="#FFFFFF" stroke="rgb(  0, 158, 115)" stroke-width="2.00" stroke-linecap="butt" stroke-linejoin="miter">
</g>
<g fill="none" color="black" stroke="currentColor" stroke-width="2.00" stroke-linecap="butt" stroke-linejoin="miter">
</g>
<g fill="none" color="black" stroke="black" stroke-width="1.00" stroke-linecap="butt" stroke-linejoin="miter">
</g>
<g fill="none" color="black" stroke="currentColor" stroke-width="1.00" stroke-linecap="butt" stroke-linejoin="miter">
	<path stroke='black'  d='M62.2,18.1 L62.2,446.0 L615.0,446.0 L615.0,18.1 L62.2,18.1 Z  '/></g>
<g fill="none" color="black" stroke="currentColor" stroke-width="1.00" stroke-linecap="butt" stroke-linejoin="miter">
</g>
</g>
</svg>
